X: 139
T: Prince Charlie's Welcome to the Isle of Skye
T: Planxty George Brabazon
C:O'Carolan
S:MacDonald - Skye Collection
N:pg.155
M:C
L:1/8
K:D
dB|A2D2 GFED|A2D2 GFED|B2E2 EFGA|B2E2 EFGA|BAGF d2 cB|BAGF GFED|
FEDB, A,B,DE|F2 D2 D2:|
|:de|f2 df e2 ce|d2 Bd BAGF|B2E2 EFGA|B2E2 E2 de|f2 df e2 ce|d2 Bd BAGF|
GFED A,B,DE|{DE}F2 D2 D2:|
|:ag|f2 d2 fgag|f2 d2 fgag|g2e2 efga|b2e2 e2ag|f2d2 fagf|f2d2 fgag|fgab
agfe|{de}f2 d2d2:|
|:de|f2 (d/e/f) e2 (c/d/e)|d2 (B/c/d) BAGF|B2E2 EFGA|B2E2 E2 de|(f2 d/e/f) e2
(c/d/e)|
d2 (B/c/d) BAGF|GFED A,B,DE|{DE}F2D2D2:|
|:dB|ADFD GFED|ADFD GFED|BEGE EFGA|BEGE EFGB|AFAF BGcA|dcBA BAGF|
GFED A,B,DE|{DE}F2 D2 D2:|
|:de|fdfd ecec|dcBA BAGF|BEGE EFGA|BEFE E2 de|fdfd ecec|dcBA BAGF|
GFED A,B,DE|{DE}F2 D2 D2:|
|:dB|AD(FE/D/) ADdD|AD (FE/D/) ADdD|BEeE EFGA|BEeE Eedc|BAGF dcdB|
BAGF GFED|FEDB, A,B,DE|{DE}F2 D2D2:|
|:de|fedf edce|dcBd BAGF|BEeE EFGA|BEeE EFGg|fedf edce|dcBd BAGF|
GFED A,B,DE|{DE}F2 D2D2:|


